svgs/thin/comment-code.svg

<svg xmlns="http://www.w3.org/2000/svg" viewBox="0 0 512 512"><!--! Font Awesome Pro 6.0.0-alpha3 by @fontawesome - https://fontawesome.com License - https://fontawesome.com/license (Commercial License) --><path d="M256 32C114.6 32 .0273 125.1 .0273 240c0 49.59 21.38 95.03 56.97 130.7C44.5 421.1 2.729 466 2.229 466.5c-2.188 2.297-2.781 5.734-1.5 8.734C2.041 478.2 4.813 480 8 480c66.31 0 116-31.78 140.6-51.39C181.3 440.9 217.6 448 256 448c141.4 0 255.1-93.09 255.1-208S397.4 32 256 32zM256 432c-35.12 0-69.36-6.184-101.8-18.38L145.7 410.4l-7.105 5.666c-20.2 16.11-60.14 42.04-112.7 47.06c14.44-18.29 37.42-51.68 46.57-88.59l2.172-8.758l-6.371-6.391C34.1 325.1 16 283.8 16 240c0-105.9 107.7-192 240-192s240 86.13 240 192S388.3 432 256 432zM310.5 154.3c-3.125-3.125-8.188-3.125-11.31 0s-3.125 8.188 0 11.31L373.6 240l-74.34 74.34c-3.125 3.125-3.125 8.188 0 11.31C300.8 327.2 302.8 328 304.9 328s4.094-.7813 5.656-2.344l80-80c3.125-3.125 3.125-8.188 0-11.31L310.5 154.3zM212.8 154.3c-3.125-3.125-8.188-3.125-11.31 0l-80 80c-3.125 3.125-3.125 8.188 0 11.31l80 80C203 327.2 205.1 328 207.1 328s4.094-.7813 5.656-2.344c3.125-3.125 3.125-8.188 0-11.31L138.4 240l74.34-74.34C215.9 162.5 215.9 157.5 212.8 154.3z"/></svg>

<svg xmlns="http://www.w3.org/2000/svg" viewBox="0 0 512 512"><!-- Font Awesome Pro 6.0.0-alpha2 by @fontawesome - https://fontawesome.com License - https://fontawesome.com/license (Commercial License) --><path d="M256 32C114.594 32 0 125.094 0 240C0 289.594 21.406 335 57 370.703C44.5 421.094 2.688 466 2.188 466.5C0 468.797 -0.594 472.203 0.688 475.203C1.999 478.203 4.812 480 8 480C74.312 480 124 448.203 148.594 428.594C181.312 440.906 217.594 448 256 448C397.406 448 512 354.906 512 240S397.406 32 256 32ZM256 432C220.879 432 186.641 425.816 154.23 413.619L145.723 410.418L138.617 416.084C118.418 432.189 78.477 458.119 25.957 463.143C40.395 444.848 63.375 411.461 72.531 374.555L74.703 365.797L68.332 359.406C34.098 325.066 16 283.775 16 240C16 134.131 123.664 48 256 48S496 134.131 496 240S388.336 432 256 432ZM310.547 154.344C307.422 151.219 302.359 151.219 299.234 154.344S296.109 162.531 299.234 165.656L373.578 240L299.234 314.344C296.109 317.469 296.109 322.531 299.234 325.656C300.797 327.219 302.844 328 304.891 328S308.984 327.219 310.547 325.656L390.547 245.656C393.672 242.531 393.672 237.469 390.547 234.344L310.547 154.344ZM212.766 154.344C209.641 151.219 204.578 151.219 201.453 154.344L121.453 234.344C118.328 237.469 118.328 242.531 121.453 245.656L201.453 325.656C203.016 327.219 205.062 328 207.109 328S211.203 327.219 212.766 325.656C215.891 322.531 215.891 317.469 212.766 314.344L138.422 240L212.766 165.656C215.891 162.531 215.891 157.469 212.766 154.344Z"/></svg>
